cast-connected.svg

<svg fill="currentColor" viewBox="0 0 24 24"><path d="M21 3H3c-1.11 0-2 .89-2 2v3h2V5h18v14h-7v2h7a2 2 0 0 0 2-2V5a2 2 0 0 0-2-2M1 10v2a9 9 0 0 1 9 9h2c0-6.08-4.93-11-11-11m18-3H5v1.63c3.96 1.28 7.09 4.41 8.37 8.37H19M1 14v2a5 5 0 0 1 5 5h2a7 7 0 0 0-7-7m0 4v3h3a3 3 0 0 0-3-3"/></svg>

<svg  viewBox="0 0 24 24" fill="currentColor"><path  d="M21,3H3C1.89,3 1,3.89 1,5V8H3V5H21V19H14V21H21A2,2 0 0,0 23,19V5C23,3.89 22.1,3 21,3M1,10V12A9,9 0 0,1 10,21H12C12,14.92 7.07,10 1,10M19,7H5V8.63C8.96,9.91 12.09,13.04 13.37,17H19M1,14V16A5,5 0 0,1 6,21H8A7,7 0 0,0 1,14M1,18V21H4A3,3 0 0,0 1,18Z"/></svg>
